X:1
T:I love alas! yet am not loved - Wilbye
T:#
%%score 1 2 3
L:1/8
Q:1/4=120
M:4/4
K:F
V:1 treble nm="Soprano I" snm="S"
V:2 treble nm="Soprano II"
V:3 treble-8 nm="Tenor" snm="T"
V:1
"^I love, alas! yet am not loved""^John Wilbye\n (1574-1638)" z4 z2!p! d2 | B2 G2 d4- | d4 z2 d2 | %3
w: I|love, a- las!|* a-|
 B6 c2 | A2 B2 A4 | G8 |[M:4/4] z2 F2 B4 | z2 B2 _e4- | e2 d2 c2 c2 | d8 | c8 | z8 | d4 d4- | %13
w: las! yet|am not lov-|ed,|a- las!|a- las!|* yet am not|lov-|ed,||For cru\-|
 d4 c4 | d8 | z2"^cresc." B2 A2 ^F2 | z2 B2 A2 A2 | z2 d2 c2 A2 | z2 d2 c2 A2 |!p! B4 c4 | A8 | %21
w: * el|she|to pi- ty,|to- pi- ty,|to pi- ty,|to pi- ty|is not|mov-|
 G16 ||!mf! ^F4 A4- | A2 G2 G4- | G4 ^F4 | G6 A2 | B4 B4 | c8 | F4 z2 d2- | dc B2 z2 A2- | %30
w: ed.|My con\-|* stant love|* with|scorn she|ill re-|ward-|eth, On\-|* ly my sighs|
 A2 B2 c3 c | c2 B2 A2 A2 | z2!p! d3 c B2 | z2 A4 B2 | c3 c c2 B2 | A2 B2 A4 | B4!mf! d4 | %37
w: * a lit- tle|she re- gard- eth,|on- ly my|sighs a|lit- tle, lit- tle|she re- gard-|eth: Yet|
 d3 c (BA) G2 | ^F2 F2 G2 B2 | A2 ^F2 z2!f! d2 | d3 c (BA) G2 | ^F2 F2 G2 B2 | A2 A2!p! D4- | %43
w: more and more * the|quench- less fire in-|creas- eth, yet|more and more * the|quench- less fire in-|creas- eth, Which|
 D4 E4- | E4 F4- | F4 G4- | G4 A4- | A4 B4- | B4 G4- | G4 c4- | c4 A4- | A4 d3 c | B2 G4 (A2- | %53
w: * to|* my|* great\-|* er|* tor\-|* ment,|* ne\-|* ver|* ceas\- eth,|ne- ver ceas\-|
 AG G4 ^F2) | G2!f!"^* These four notes are in \nthe Tenor in the original" G2 B2 A2 | G4 z4 | z8 | %57
w: |eth, yet more and|more,||
 z8 | d2 f4 _e2 | d2 B2 d2 c2 | B2 B2 A2 F2 | G2 F2 _E2 F2 |!p! F8- | F4 G4- | G4 A4- | A4 B4- | %66
w: |yet more and|more the quench- less|fire, the quench- less|fire in- creas- eth,|which|* to|* my|* great\-|
 B4 G4- | G4 c4- | c4 A4 | d8- | d4 B4 | A8 | =B16 |] %73
w: * er|* tor\-|* ment,|ne\-|* ver|ceas-|eth.|
V:2
 z2!p! B2 A2 A2 | G3 A B2 (AG) | A2 B2 A4 | G6 A2 | ^F2 G2 (G2 F2) | G6 B2 |[M:4/4] d4 z2 =F2 | %7
w: I love, a-|las! a- las! yet *|am not lov-|ed, yet|am not lov\- *|ed, a-|las! a-|
 G3 F (GA) B2 | (A2 B4 A2) | B8 | z8 | B8- | B4 A4 | G8 | ^F8 | z2"^cresc." D2 D2 D2 | %16
w: las! yet am * not|lov\- * *|ed,||For|* cru-|el|she|to pi- ty,|
 z2 D2 D2 D2 | z2 F2 F2 F2 | z2 F2 F2 F2 | z2!p! G2 A2 G2 | ^F2 G2 (G2 F2) | G16 ||!mf! D8 | %23
w: to- pi- ty,|to pi- ty,|to pi- ty|to pi- ty|is not mov\- *|ed.|My|
 D4 D4 | C6 D2 | _E4 D4 | G4 F4 | _E8 | D4 z2 B2- | BA G2 z2 ^F2- | F2 G2 G3 G | A2 G2 ^F2 F2 | %32
w: con- stant|love with|scorn she|ill re-|ward-|eth, On\-|* ly my sighs|* a lit- tle|she re- gard- eth,|
 z2!p! B3 A G2 | z2 ^F4 G2 | G3 G A2 G2 | ^F2 G2 (G2 F2) | G6!mf! B2 | A2 A2 G2 G2 | A2 D2 D2 d2 | %39
w: on- ly my|sighs a|lit- tle, lit- tle|she re- gard\- *|eth: Yet|more and more, yet|more and more, yet|
 d3 c (BA)!f! G2 | A2 ^F2 G2 B2 | A2 D4 G2 | ^F8 | G4!p! G4 | C8 | D8 | E8 | F8 | G2 G2 c4- | %49
w: more and more * the|quench- less fire in-|creas- eth, in-|creas-|eth, Which,|to|my|great-|er|tor- ment, ne\-|
 c2 B2 A2 G2 | A4 d4- | d2 c2 B2 A2 | G2 D2 _E2 E2 | D8 | D8 |!f! D2 d4 c2 | B2 G2 B2 A2 | %57
w: * ver ceas- eth,|which to|* my great- er|tor- ment, ne- ver|ceas-|eth,|yet more and|more, yet more and|
 G2 B2 A2 G2 | =F4 z4 | z2 d2 f2 c2 | _e2 d2 d2 A2 | c2 B2 (A2 B2- | B2 AG A4) | B4!p! D4 | E8 | %65
w: more, yet more and|more,|yet more and|more the quench- less|fire in- creas\- *||eth, which,|to|
 F8 | G8 | c8 | A4 c4 | B6 (AG) | (^F4 G4- | G4 ^F4) | G16 |] %73
w: my|great-|er|tor- ment,|ne- ver *|ceas\- *||eth.|
V:3
!p! g4 ^f2 d2 | g6 (^fe) | ^f2 (g4 f2) | g2 d2 _e4 | d6 d2 | B2 G2 d4- | %6
w: I love, a-|las! a\- *|las! yet *|am not lov-|ed, I|love, a- las!|
[M:4/4][K:treble-8] d2 d2 B4- | B2 B2 B4 | (c2 de) f2 f2 | f4 g4- | g4 ^f4 | g8 | z4 d4 | B4 G4 | %14
w: * a- las!|* yet am|not * * lov- ed,|For cru\-|* el|she,|for|cru- el|
 A4 z2"^cresc." d2 | B2 G2 z2 d2 | B2 G2 z2 =f2 | d2 B2 z2 f2 | d2 B2 z2 f2 | d2 B2!p! _e2 e2 | %20
w: she to|pi- ty, to|pi- ty, to|pi- ty, to|pi- ty to|pi- ty is not|
 d8 | d16 ||!mf! A8 | B4 B4 | c4 A4 | B6 A2 | G2 A2 (B4- | B4 A4) | B4 z2 f2- | ff d2 z2 d2- | %30
w: mov-|ed.|My|con- stant|love with|scorn she|ill re- ward\-||eth, On\-|* ly my sighs|
 d2 d2 _e3 e | _e2 d2 d2 d2 | z2!p! =f3 f d2 | z2 d4 d2 | _e3 e e2 d2 | d8 | d8 | z4 z2!mf! B2 | %38
w: * a lit- tle|she re- gard- eth,|on- ly my|sighs a|lit- tle she re-|gard-|eth:|Yet|
 A3 A G2 g2 | ^f2 d2 g2!f! B2 | d2 d2 (dcBc | d2) A2 B2 d2- | d2 d2 A4 | B4!p! G4 | E4 A4 | F4 B4 | %46
w: more and more, yet|more and more the|quench- less fire * * *|* in- creas- eth,|* in- creas-|eth, Which,|to my|great- er|
 G4 c4 | A4 d4 | B4 _e4- | e4 c4- | c4 f4- | f4 d4 | (dcBA) G2 c2- | c2 B2 A4 | G4 z4 | %55
w: tor- ment,|ne- ver|ceas- eth,|* which,|* to|* my|tor\- * * * ment, ne\-|* ver ceas-|eth,|
 z4!f! d2 f2- | f2 _e2 d4- | d2 (cB) c4- | c2 B2 (AG A2- | A)G (G3 A =F2) | G2 d2 f2 c2 | _e6 d2 | %62
w: yet more|* and more|* the * quench\-|* less fire * *|* in creas\- * *|eth, yet more and|more the|
 c2 B2 c2 c2 | d4 B4 |!p! G4 c4 | A4 d4 | B4 _e4- | e4 c4- | c4 f4- | f2 _e2 d2 (cB) | A4 (B2 c2) | %71
w: quench- less fire in-|creas- eth,|which, to|my great-|er tor\-|* ment,|* ne\-|* ver ceas- eth, *|ne- ver *|
 d8 | d16 |] %73
w: ceas-|eth.|

